X: 27139
T: Miss McGuinness
R: reel
M: 4/4
K: Gmajor
dG G2 dGBd|dG G2 efge|dG G2 dGBd|(3efg dB BAAd|
dG G2 dGBd|dG G2 efge|dG G2 dGBd|(3efg dB BA A2||
faaf g3e|dedB defg|faaf g3e|dBgd BAAg|
faaf g3e|dedB dega|bagb afge|dBgd BA A2||

